X: 10622
T: SINCE THIS I'M DOOM'D
Q: "Moderato"
%R: march
B: "Edinburgh Repository of Music" v.1 p.62 #2
F: http://digital.nls.uk/special-collections-of-printed-music/pageturner.cfm?id=87776133
Z: 2015 John Chambers <jc:trillian.mit.edu>
M: 2/4
L: 1/8
K: C
|:\
g2ee | e3c | ddde | (gf)e2 |\
(c'2b)d' | c'2bd' | c'(gfe) | (e2d)z :|
|:\
d3f | (fe)eg | gdde/f/ | f2(eg) |\
{c'}b2ag | {c'}b2ag | c'g (b/a/)(g/f/) | e2Td2 |\
c3z :|
